assets/icons/icon_pulse.svg

<svg width="30" height="30" viewBox="0 0 30 30" fill="none" xmlns="http://www.w3.org/2000/svg">
<g clip-path="url(#clip0_2048_934)">
<path d="M6.00031 16.1087C5.98049 18.5285 6.91686 20.8575 8.60404 22.5847C10.2912 24.312 12.5915 25.2965 15.0003 25.3224C20.0462 25.3224 24.0002 21.453 24.0002 16.5147C24.0002 11.3011 19.8789 6.89026 15.0003 6.89026C13.3589 6.88962 11.7499 7.34867 10.3539 8.21584L10.8186 5.73737C10.8566 5.58082 10.8315 5.41553 10.7489 5.27743C10.6662 5.13933 10.5326 5.03959 10.3772 4.9999C10.3017 4.98734 10.2244 4.99014 10.15 5.00814C10.0756 5.02614 10.0056 5.05897 9.94403 5.10468C9.88249 5.15039 9.83072 5.20805 9.79179 5.27424C9.75286 5.34042 9.72755 5.41379 9.71738 5.48999L8.97397 9.26604C8.0336 10.1375 7.28371 11.1957 6.77182 12.3736C6.25993 13.5515 5.99721 14.8234 6.00031 16.1087ZM22.8433 16.1087C22.8569 18.2123 22.0384 20.2353 20.5676 21.7329C19.0969 23.2305 17.0944 24.08 15.0003 24.0948C13.4127 24.0668 11.8696 23.5627 10.5693 22.6472C9.26902 21.7317 8.27084 20.4466 7.70297 18.957C7.1351 17.4674 7.02347 15.8412 7.38242 14.2874C7.74136 12.7336 8.55449 11.323 9.71738 10.2369L13.2579 10.7036C13.3339 10.7121 13.4108 10.7053 13.4842 10.6838C13.5576 10.6623 13.626 10.6265 13.6856 10.5783C13.7452 10.5302 13.7947 10.4707 13.8313 10.4033C13.868 10.3359 13.891 10.2619 13.8991 10.1855C13.9231 10.0277 13.8837 9.86677 13.7896 9.7381C13.6955 9.60943 13.5544 9.52357 13.3973 9.49941L11.1113 9.20069C12.2946 8.49778 13.6441 8.12703 15.0189 8.12715C17.1089 8.14688 19.106 8.99798 20.5726 10.494C22.0391 11.99 22.8557 14.009 22.8433 16.1087Z" fill="white"/>
<path d="M10.6044 15.06C10.8592 15.06 11.0804 15.102 11.268 15.186C11.4584 15.27 11.604 15.3904 11.7048 15.5472C11.8056 15.704 11.856 15.8902 11.856 16.1058C11.856 16.3186 11.8056 16.5048 11.7048 16.6644C11.604 16.8212 11.4584 16.9416 11.268 17.0256C11.0804 17.1096 10.8592 17.1516 10.6044 17.1516H9.9408V18H9.3948V15.06H10.6044ZM10.5792 16.6896C10.8172 16.6896 10.9978 16.6392 11.121 16.5384C11.2442 16.4376 11.3058 16.2934 11.3058 16.1058C11.3058 15.9182 11.2442 15.774 11.121 15.6732C10.9978 15.5724 10.8172 15.522 10.5792 15.522H9.9408V16.6896H10.5792ZM14.5633 15.7572V18H14.0635V17.7144C13.9795 17.8152 13.8745 17.8936 13.7485 17.9496C13.6225 18.0028 13.4867 18.0294 13.3411 18.0294C13.0415 18.0294 12.8049 17.9468 12.6313 17.7816C12.4605 17.6136 12.3751 17.3658 12.3751 17.0382V15.7572H12.9001V16.9668C12.9001 17.1684 12.9449 17.3196 13.0345 17.4204C13.1269 17.5184 13.2571 17.5674 13.4251 17.5674C13.6127 17.5674 13.7611 17.51 13.8703 17.3952C13.9823 17.2776 14.0383 17.1096 14.0383 16.8912V15.7572H14.5633ZM15.2507 14.8836H15.7757V18H15.2507V14.8836ZM17.1577 18.0294C16.9757 18.0294 16.7979 18.0056 16.6243 17.958C16.4507 17.9104 16.3121 17.8502 16.2085 17.7774L16.4101 17.3784C16.5109 17.4456 16.6313 17.5002 16.7713 17.5422C16.9141 17.5814 17.0541 17.601 17.1913 17.601C17.5049 17.601 17.6617 17.5184 17.6617 17.3532C17.6617 17.2748 17.6211 17.2202 17.5399 17.1894C17.4615 17.1586 17.3341 17.1292 17.1577 17.1012C16.9729 17.0732 16.8217 17.041 16.7041 17.0046C16.5893 16.9682 16.4885 16.9052 16.4017 16.8156C16.3177 16.7232 16.2757 16.5958 16.2757 16.4334C16.2757 16.2206 16.3639 16.0512 16.5403 15.9252C16.7195 15.7964 16.9603 15.732 17.2627 15.732C17.4167 15.732 17.5707 15.7502 17.7247 15.7866C17.8787 15.8202 18.0047 15.8664 18.1027 15.9252L17.9011 16.3242C17.7107 16.2122 17.4965 16.1562 17.2585 16.1562C17.1045 16.1562 16.9869 16.18 16.9057 16.2276C16.8273 16.2724 16.7881 16.3326 16.7881 16.4082C16.7881 16.4922 16.8301 16.5524 16.9141 16.5888C17.0009 16.6224 17.1339 16.6546 17.3131 16.6854C17.4923 16.7134 17.6393 16.7456 17.7541 16.782C17.8689 16.8184 17.9669 16.88 18.0481 16.9668C18.1321 17.0536 18.1741 17.1768 18.1741 17.3364C18.1741 17.5464 18.0831 17.7144 17.9011 17.8404C17.7191 17.9664 17.4713 18.0294 17.1577 18.0294ZM20.7346 16.8912C20.7346 16.9276 20.7318 16.9794 20.7262 17.0466H18.9664C18.9972 17.2118 19.077 17.3434 19.2058 17.4414C19.3374 17.5366 19.4998 17.5842 19.693 17.5842C19.9394 17.5842 20.1424 17.503 20.302 17.3406L20.5834 17.664C20.4826 17.7844 20.3552 17.8754 20.2012 17.937C20.0472 17.9986 19.8736 18.0294 19.6804 18.0294C19.434 18.0294 19.217 17.9804 19.0294 17.8824C18.8418 17.7844 18.6962 17.6486 18.5926 17.475C18.4918 17.2986 18.4414 17.0998 18.4414 16.8786C18.4414 16.6602 18.4904 16.4642 18.5884 16.2906C18.6892 16.1142 18.8278 15.977 19.0042 15.879C19.1806 15.781 19.3794 15.732 19.6006 15.732C19.819 15.732 20.0136 15.781 20.1844 15.879C20.358 15.9742 20.4924 16.11 20.5876 16.2864C20.6856 16.46 20.7346 16.6616 20.7346 16.8912ZM19.6006 16.152C19.4326 16.152 19.2898 16.2024 19.1722 16.3032C19.0574 16.4012 18.9874 16.5328 18.9622 16.698H20.2348C20.2124 16.5356 20.1438 16.404 20.029 16.3032C19.9142 16.2024 19.7714 16.152 19.6006 16.152Z" fill="white"/>
</g>
<defs>
<clipPath id="clip0_2048_934">
<rect width="17.9999" height="20.3225" fill="white" transform="translate(6.00012 5)"/>
</clipPath>
</defs>
</svg>

<svg xmlns="http://www.w3.org/2000/svg" width="30" height="30" fill="none" viewBox="0 0 30 30"><g fill="#fff" clip-path="url(#a)"><path d="M6 16.109a9.16 9.16 0 0 0 2.604 6.476A9.08 9.08 0 0 0 15 25.322c5.046 0 9-3.869 9-8.807C24 11.3 19.88 6.89 15 6.89c-1.641 0-3.25.459-4.646 1.326l.465-2.479A.614.614 0 0 0 10.377 5a.57.57 0 0 0-.66.49l-.743 3.776a9.3 9.3 0 0 0-2.202 3.108A9.3 9.3 0 0 0 6 16.109m16.843 0a7.95 7.95 0 0 1-2.275 5.624A7.88 7.88 0 0 1 15 24.095a7.94 7.94 0 0 1-4.43-1.448 8 8 0 0 1-2.867-3.69 8.04 8.04 0 0 1-.32-4.67 8 8 0 0 1 2.334-4.05l3.54.467a.58.58 0 0 0 .574-.3.6.6 0 0 0 .068-.219.604.604 0 0 0-.502-.686l-2.286-.298a7.65 7.65 0 0 1 3.908-1.074c2.09.02 4.087.871 5.554 2.367a7.95 7.95 0 0 1 2.27 5.615"/><path d="M10.604 15.06q.382 0 .664.126.285.126.437.361.15.235.151.559 0 .32-.151.558a.97.97 0 0 1-.437.362 1.6 1.6 0 0 1-.664.126h-.663V18h-.546v-2.94zm-.025 1.63q.357 0 .542-.152.185-.15.185-.432t-.185-.433-.542-.151h-.638v1.168zm3.984-.933V18h-.5v-.286a.86.86 0 0 1-.315.236q-.188.08-.407.08-.45 0-.71-.248-.255-.252-.256-.744v-1.28h.525v1.209q0 .302.134.453a.5.5 0 0 0 .391.147.59.59 0 0 0 .445-.172q.168-.176.168-.504v-1.134zm.688-.873h.525V18h-.525zm1.907 3.145q-.273 0-.534-.071a1.3 1.3 0 0 1-.415-.18l.201-.4q.15.102.361.164.215.06.42.059.47 0 .47-.248 0-.117-.121-.164a2 2 0 0 0-.382-.088 3 3 0 0 1-.454-.096.7.7 0 0 1-.302-.19.55.55 0 0 1-.126-.382q0-.319.264-.508.27-.193.723-.193.231 0 .462.055.231.05.378.138l-.202.4a1.24 1.24 0 0 0-.642-.169.7.7 0 0 0-.353.072q-.118.067-.118.18 0 .126.126.18.13.051.4.097.267.042.44.097a.7.7 0 0 1 .294.185q.126.13.126.37 0 .314-.273.503-.273.19-.743.19m3.577-1.138q0 .055-.009.156h-1.76q.047.247.24.394a.8.8 0 0 0 .487.143q.37 0 .609-.243l.281.323a.95.95 0 0 1-.382.273 1.4 1.4 0 0 1-.52.092q-.37 0-.652-.147a1.1 1.1 0 0 1-.436-.407 1.2 1.2 0 0 1-.152-.596q0-.328.147-.588.152-.265.416-.412.265-.147.597-.147.328 0 .583.147a1 1 0 0 1 .404.407q.147.261.147.605m-1.134-.739q-.252 0-.429.151a.62.62 0 0 0-.21.395h1.273a.62.62 0 0 0-.206-.395.63.63 0 0 0-.428-.151"/></g><defs><clipPath id="a"><path fill="#fff" d="M6 5h18v20.323H6z"/></clipPath></defs></svg>
